assets/images/AWS/Compute/EC2/Compute_AmazonEC2_Instance.svg

<?xml version="1.0" encoding="UTF-8" standalone="no"?>
<!-- Generator: Adobe Illustrator 16.0.0, SVG Export Plug-In . SVG Version: 6.00 Build 0)  -->

<svg
   xmlns:dc="http://purl.org/dc/elements/1.1/"
   xmlns:cc="http://creativecommons.org/ns#"
   xmlns:rdf="http://www.w3.org/1999/02/22-rdf-syntax-ns#"
   xmlns:svg="http://www.w3.org/2000/svg"
   xmlns="http://www.w3.org/2000/svg"
   xmlns:sodipodi="http://sodipodi.sourceforge.net/DTD/sodipodi-0.dtd"
   xmlns:inkscape="http://www.inkscape.org/namespaces/inkscape"
   version="1.2"
   x="0px"
   y="0px"
   width="100px"
   height="100px"
   viewBox="0 0 100 100"
   xml:space="preserve"
   id="svg2"
   inkscape:version="0.91 r13725"
   sodipodi:docname="Compute_AmazonEC2_Instance.svg"><metadata
     id="metadata39"><rdf:RDF><cc:Work
         rdf:about=""><dc:format>image/svg+xml</dc:format><dc:type
           rdf:resource="http://purl.org/dc/dcmitype/StillImage" /></cc:Work></rdf:RDF></metadata><defs
     id="defs37" /><sodipodi:namedview
     pagecolor="#ffffff"
     bordercolor="#666666"
     borderopacity="1"
     objecttolerance="10"
     gridtolerance="10"
     guidetolerance="10"
     inkscape:pageopacity="0"
     inkscape:pageshadow="2"
     inkscape:window-width="1280"
     inkscape:window-height="985"
     id="namedview35"
     showgrid="false"
     inkscape:zoom="7.4579687"
     inkscape:cx="50.26817"
     inkscape:cy="50"
     inkscape:window-x="0"
     inkscape:window-y="0"
     inkscape:window-maximized="1"
     inkscape:current-layer="svg2" /><g
     id="Layer_3"
     transform="matrix(1.7651316,0,0,1.7651316,-18.039508,-59.930462)" /><g
     id="Layer_1"
     transform="matrix(1.7651316,0,0,1.7651316,-38.25658,-38.257463)"><g
       id="g6"><g
         id="g8"><path
           d="m 67.358,21.674 c 5.015,0 9.064,4.037 9.064,9.012 l 0,35.484 c 0,4.977 -4.05,9.012 -9.064,9.012 l -34.701,0 c -5.014,0 -9.08,-4.035 -9.08,-9.012 l 0,-35.484 c 0,-4.975 4.066,-9.012 9.08,-9.012 l 34.701,0 z"
           id="path10"
           inkscape:connector-curvature="0"
           style="fill:#f58536" /></g><g
         id="g12"><path
           d="m 76.423,66.17 0,3.145 c 0,0.438 -0.033,0.869 -0.092,1.291 l 0,-3.145 c 0.059,-0.422 0.092,-0.854 0.092,-1.291"
           id="path14"
           inkscape:connector-curvature="0"
           style="fill:#9d5025" /><path
           d="m 76.331,67.461 0,3.145 c -0.074,0.5 -0.188,0.986 -0.337,1.457 l 0,-3.145 c 0.15,-0.471 0.263,-0.957 0.337,-1.457"
           id="path16"
           inkscape:connector-curvature="0"
           style="fill:#9d5025" /><path
           d="m 75.994,68.918 0,3.145 c -0.179,0.555 -0.408,1.084 -0.687,1.586 l 0,-3.146 c 0.279,-0.501 0.508,-1.03 0.687,-1.585"
           id="path18"
           inkscape:connector-curvature="0"
           style="fill:#9d5025" /><path
           d="m 75.308,70.502 0,3.146 c -1.538,2.787 -4.518,4.678 -7.949,4.678 l 0,-3.145 c 3.431,0.001 6.411,-1.89 7.949,-4.679"
           id="path20"
           inkscape:connector-curvature="0"
           style="fill:#9d5025" /></g><path
         d="m 76.423,66.17 0,3.145 c 0,4.977 -4.05,9.012 -9.064,9.012 l 0,-3.145 c 5.014,0 9.064,-4.036 9.064,-9.012 z"
         id="path22"
         inkscape:connector-curvature="0"
         style="fill:#9d5025" /><g
         id="g24"><rect
           x="32.282001"
           y="75.181999"
           width="35.139"
           height="3.145"
           id="rect26"
           style="fill:#9d5025" /></g><g
         id="g28"><path
           d="m 33.032,75.182 0,3.145 c -5.014,0 -9.455,-4.035 -9.455,-9.012 l 0,-3.145 c 0,4.977 4.066,9.012 9.08,9.012"
           id="path30"
           inkscape:connector-curvature="0"
           style="fill:#9d5025" /></g><path
         d="m 32.657,75.182 0,3.145 c -5.014,0 -9.08,-4.035 -9.08,-9.012 l 0,-3.145 c 0,4.976 4.067,9.012 9.08,9.012 z"
         id="path32"
         inkscape:connector-curvature="0"
         style="fill:#9d5025" /></g></g><g
     id="nyt_x5F_exporter_x5F_info"
     display="none" /></svg>

<?xml version="1.0" encoding="utf-8"?>
<!-- Generator: Adobe Illustrator 16.0.0, SVG Export Plug-In . SVG Version: 6.00 Build 0)  -->
<svg version="1.2" baseProfile="tiny" xmlns="http://www.w3.org/2000/svg" xmlns:xlink="http://www.w3.org/1999/xlink" x="0px"
	 y="0px" width="100px" height="100px" viewBox="0 0 100 100" xml:space="preserve">
<g id="Layer_3">
</g>
<g id="Layer_1">
	<g>
		<g>
			<path fill="#F58536" d="M67.358,21.674c5.015,0,9.064,4.037,9.064,9.012V66.17c0,4.977-4.05,9.012-9.064,9.012H32.657
				c-5.014,0-9.08-4.035-9.08-9.012V30.686c0-4.975,4.066-9.012,9.08-9.012H67.358z"/>
		</g>
		<g>
			<path fill="#9D5025" d="M76.423,66.17v3.145c0,0.438-0.033,0.869-0.092,1.291v-3.145C76.39,67.039,76.423,66.607,76.423,66.17"/>
			<path fill="#9D5025" d="M76.331,67.461v3.145c-0.074,0.5-0.188,0.986-0.337,1.457v-3.145
				C76.144,68.447,76.257,67.961,76.331,67.461"/>
			<path fill="#9D5025" d="M75.994,68.918v3.145c-0.179,0.555-0.408,1.084-0.687,1.586v-3.146
				C75.586,70.002,75.815,69.473,75.994,68.918"/>
			<path fill="#9D5025" d="M75.308,70.502v3.146c-1.538,2.787-4.518,4.678-7.949,4.678v-3.145
				C70.79,75.182,73.77,73.291,75.308,70.502"/>
		</g>
		<path fill="#9D5025" d="M76.423,66.17v3.145c0,4.977-4.05,9.012-9.064,9.012v-3.145C72.373,75.182,76.423,71.146,76.423,66.17z"/>
		<g>
			<rect x="32.282" y="75.182" fill="#9D5025" width="35.139" height="3.145"/>
		</g>
		<g>
			<path fill="#9D5025" d="M33.032,75.182v3.145c-5.014,0-9.455-4.035-9.455-9.012V66.17c0,4.977,4.066,9.012,9.08,9.012"/>
		</g>
		<path fill="#9D5025" d="M32.657,75.182v3.145c-5.014,0-9.08-4.035-9.08-9.012V66.17C23.577,71.146,27.644,75.182,32.657,75.182z"
			/>
	</g>
</g>
<g id="nyt_x5F_exporter_x5F_info" display="none">
</g>
</svg>
